X:123
T:Zelmira. GS.123
M:4/4
L:1/16
Q:1/4=90
S:George Spencer m/s, Leeds,1831
R:.Air
O:England
A:Leeds
H:1831
Z:vmp.Cherri Graebe
K:G major
d4 d^cde d2g2 d4 | Bc^GA e2d2 â€œ_as writâ€B<cA<B G4 |\
B4 B^ABc B2e2 g4 | gf^cd eAB^ce2f2 d4 ||!
a2f2 dede d2g2 b4 | ba^ga dede d2B2 G4 |\
g4a4b4 câ€™a | gbfa fadf | b4g4 |]

